X: 1332
T: Charlie Kyle's Jigs No 2
B: australian traditional tunes wiki
M:6/8
L:1/8
R: Jig
Q: 3/8=100
K:G
V:1 
|:"Am"e2 Ae2A|"G"BBBG3|"Am"e2Ae2A|"Em"e2d efg|
"Am"e2Ae2B|"G"BBBG3|"Em"e2dg2B|"G"B2A"Am"A3:|
|:"Am"eaa a2a|"G"b2b"Am"a2a|"G"dggg2g|"Am"a2a"G"g3|
"Am"eaa a2a|"G"b2b"Am"a2A|"D"def"Em"g2B|"G"B2A"Am"A3:|
% abcbook-tune_id 6342d53a0c3aee451259f3f0


% abcbook-boost 0
% abcbook-tablature 
% abcbook-transpose 
% abcbook-lastupdated 1665324359651
% abcbook-soundfonts 
% abcbook-repeats 1
% NFF Book 2019
% Bush Traditions recording played by Ingrid Wangel

